X: 30295
T: Old Man Dillon
R: jig
M: 6/8
K: Adorian
|:G|EAA ABd|ege dBA|BGG GBG|GBA GED|
EAA ABd|efg a2a|age dBd|eAA A2:|
a|gef g2a|gef gdc|BGG GBG|GBA GED|
gef g2a|gef ged|^c2A ABc|dfe d2a|
gef g2a|gef gdc|BGG GBG|GBA GED|
EAA ABd|efg a2a|age dBd|eAA A3|

